src/assets/logo-2.svg

<svg fill="none" height="35" viewBox="0 0 164 35" width="164" xmlns="http://www.w3.org/2000/svg" xmlns:xlink="http://www.w3.org/1999/xlink"><linearGradient id="a" gradientUnits="userSpaceOnUse" x1="156.936" x2="114.34" y1="-17.4074" y2="-3.65126"><stop offset="0" stop-color="#d0d0ff"/><stop offset=".303907" stop-color="#a996f7"/><stop offset=".505226" stop-color="#7280fe"/><stop offset="1" stop-color="#d3d6fe"/></linearGradient><clipPath id="b"><path d="m0 0h120v34.56h-120z"/></clipPath><g clip-path="url(#b)" fill="#fff"><path d="m93.5056 12.9325c3.1673 0 6.7654 1.217 6.9804 5.1116h-4.4282c-.0922-1.1258-1.1377-1.643-2.5215-1.643-1.2915 0-1.8758.4868-1.8758 1.0649 0 .4868.369.9432 1.5376 1.1562l2.7982.4564c2.7983.5172 4.6437 1.856 4.6437 4.4726 0 3.4078-3.1061 4.9899-6.9807 4.9899-3.9053 0-7.0726-1.6126-7.3801-5.5375l4.4281.0304c.2152 1.2779 1.2915 1.856 2.8598 1.856 1.3222 0 2.1217-.3956 2.1217-1.0345 0-.4868-.4612-.8824-1.4452-1.0345l-3.0136-.5172c-2.583-.426-4.3665-1.856-4.3665-4.4423 0-3.1035 2.6752-4.929 6.6421-4.929zm-18.6657.0574c1.627 0 2.9776.4255 4.0827 1.1245v-.7902h4.9729v14.7408h-4.9729v-.8206c-1.1051.6991-2.4557 1.1246-4.0827 1.1246-4.0213 0-7.3979-3.3129-7.3979-7.6896 0-4.407 3.3766-7.6895 7.3979-7.6895zm-29.1278-5.62376 7.4566 11.05866 7.4258-11.05866h3.8824v20.71596h-5.2073v-10.3885l-4.6527 7.0983v.0304h-2.8963v-.0304l-4.6835-7.1592.0308 10.4494h-5.2073v-20.71596zm62.6489-.86077v12.36863l5.204-5.5309h5.942l-5.665 6.0171 6.158 8.7219h-5.974l-3.572-5.1055-2.093 2.2184v2.8871h-4.989v-21.57673zm-32.5388 10.49643c-2.026 0-3.4994 1.6412-3.4994 3.6776s1.4734 3.6472 3.4994 3.6472c1.1051 0 2.1795-.3039 3.1004-1.3677v-4.559c-.9209-1.0638-1.9953-1.3981-3.1004-1.3981z"/><g clip-rule="evenodd" fill-rule="evenodd"><path d="m17.28 33.6c9.0133 0 16.32-7.3067 16.32-16.32 0-9.01329-7.3067-16.32-16.32-16.32-9.01329 0-16.32 7.30671-16.32 16.32 0 9.0133 7.30671 16.32 16.32 16.32zm17.28-16.32c0 9.5435-7.7365 17.28-17.28 17.28-9.54348 0-17.28-7.7365-17.28-17.28 0-9.54348 7.73652-17.28 17.28-17.28 9.5435 0 17.28 7.73652 17.28 17.28z"/><path d="m27.7098 13.0323v5.7385h-17.4915l-.75259.0001c.79649 3.4818 3.95759 6.0827 7.73589 6.0827 3.1237 0 5.8255-1.7777 7.118-4.3612h3.3902v4.8202c0 1.141-.9397 2.0659-2.099 2.0659h-16.79185c-1.15923 0-2.09898-.9249-2.09898-2.0659v-12.2803zm-5.4033 7.4601c-1.1132 1.6018-2.9843 2.6529-5.1049 2.6529-2.1205 0-3.9917-1.0511-5.1048-2.6529zm-9.5811-6.0829c-1.6449 0-3.00571 1.1972-3.23203 2.7545h1.78923c.1967-.5994.7683-1.0329 1.4428-1.0329s1.2461.4335 1.4428 1.0329h1.7892c-.2263-1.5573-1.5871-2.7545-3.232-2.7545zm8.979 0c-1.6449 0-3.0057 1.1972-3.232 2.7545h1.7891c.1968-.5994.7684-1.0329 1.4429-1.0329s1.2461.4335 1.4428 1.0329h1.7892c-.2263-1.5573-1.5871-2.7545-3.232-2.7545zm3.9064-7.68953c1.1593 0 2.099.92491 2.099 2.06585v2.52498h-20.98983v-2.52498c0-1.14094.93975-2.06585 2.09898-2.06585z"/></g></g><path d="m124 12c0-6.62742 5.373-12 12-12h28v8c0 6.6274-5.373 12-12 12h-28z" fill="url(#a)"/><path d="m133.69 6.72c.84 0 1.5.17 1.97.52.5.37.79.95.86 1.73h-1.16c-.1-.44-.29-.76-.55-.95-.26-.2-.66-.29-1.18-.29-.45 0-.79.06-1.03.19-.3.15-.44.4-.44.74 0 .3.16.55.5.73.15.08.56.23 1.22.44.97.3 1.59.54 1.87.7.62.37.93.88.93 1.54 0 .64-.25 1.15-.75 1.52-.5.36-1.21.55-2.12.55-.88 0-1.57-.17-2.06-.51-.6-.42-.93-1.08-.98-1.99h1.16c.08.54.27.93.58 1.16.28.2.71.31 1.3.31.52 0 .94-.09 1.24-.26.3-.18.46-.41.46-.71 0-.38-.23-.68-.67-.9-.14-.07-.6-.23-1.39-.47-.88-.28-1.43-.48-1.64-.6-.55-.33-.82-.81-.82-1.44s.26-1.13.8-1.49c.5-.35 1.13-.52 1.9-.52zm5.513.44v1.67h1.15v.94h-1.15v2.92c0 .12.02.21.08.28.06.06.14.09.26.09h.68v.94h-.87c-.45 0-.78-.12-.99-.36-.2-.22-.3-.53-.3-.95v-2.92h-.93v-.94h.93v-1.2zm4.353 1.53c.76 0 1.33.19 1.69.57.32.33.48.81.48 1.44v3.3h-1.06v-.68c-.2.26-.45.45-.74.59-.33.15-.72.23-1.17.23-.54 0-.96-.14-1.27-.41-.32-.28-.48-.63-.48-1.06 0-.58.22-1.03.68-1.34.42-.3 1.01-.46 1.77-.48l1.13-.03v-.2c0-.68-.37-1.01-1.11-1.01-.32 0-.57.05-.76.17-.22.13-.37.33-.43.6l-1.13-.09c.11-.57.39-.99.84-1.25.38-.24.9-.35 1.56-.35zm1.03 2.95-1.05.03c-.91.02-1.36.34-1.36.96 0 .18.07.33.23.45s.36.19.61.19c.44 0 .81-.13 1.11-.38.3-.26.46-.59.46-.99zm2.343-4.92h1.14v4.16l2.12-2.05h1.47l-2.29 2.14 2.49 3.03h-1.46l-1.81-2.3-.52.49v1.81h-1.14zm7.727 1.97c.85 0 1.5.28 1.95.86.41.52.62 1.25.62 2.18h-3.87c.04.48.17.85.39 1.1s.54.38.95.38c.35 0 .63-.08.85-.24.17-.13.32-.34.46-.63h1.14c-.12.48-.36.89-.72 1.21-.46.39-1.03.59-1.72.59-.77 0-1.38-.24-1.83-.71-.48-.49-.72-1.16-.72-2.02 0-.77.22-1.41.68-1.93.44-.53 1.05-.79 1.82-.79zm.03.93c-.38 0-.67.1-.89.32-.21.21-.35.52-.42.93h2.66c-.1-.84-.55-1.25-1.35-1.25z" fill="#05050a"/></svg>

<svg width="164" height="35" viewBox="0 0 164 35" fill="none" xmlns="http://www.w3.org/2000/svg">
    <g clip-path="url(#clip0_7400_23004)">
        <path d="M93.5056 12.9325C96.6729 12.9325 100.271 14.1495 100.486 18.0441H96.0578C95.9656 16.9183 94.9201 16.4011 93.5363 16.4011C92.2448 16.4011 91.6605 16.8879 91.6605 17.466C91.6605 17.9528 92.0295 18.4092 93.1981 18.6222L95.9963 19.0786C98.7946 19.5958 100.64 20.9346 100.64 23.5512C100.64 26.959 97.5339 28.5411 93.6593 28.5411C89.754 28.5411 86.5867 26.9285 86.2792 23.0036L90.7073 23.034C90.9225 24.3119 91.9988 24.89 93.5671 24.89C94.8893 24.89 95.6888 24.4944 95.6888 23.8555C95.6888 23.3687 95.2276 22.9731 94.2436 22.821L91.23 22.3038C88.647 21.8778 86.8635 20.4478 86.8635 17.8615C86.8635 14.758 89.5387 12.9325 93.5056 12.9325ZM74.8399 12.9899C76.4669 12.9899 77.8175 13.4154 78.9226 14.1144V13.3242H83.8955V28.065H78.9226V27.2444C77.8175 27.9435 76.4669 28.369 74.8399 28.369C70.8186 28.369 67.442 25.0561 67.442 20.6794C67.442 16.2724 70.8186 12.9899 74.8399 12.9899ZM45.7121 7.36614L53.1687 18.4248L60.5945 7.36614H64.4769V28.0821H59.2696V17.6936L54.6169 24.7919V24.8223H51.7206V24.7919L47.0371 17.6327L47.0679 28.0821H41.8606V7.36614H45.7121ZM108.361 6.50537V18.874L113.565 13.3431H119.507L113.842 19.3602L120 28.0821H114.026L110.454 22.9766L108.361 25.195V28.0821H103.372V6.50537H108.361ZM75.8222 17.0018C73.7962 17.0018 72.3228 18.643 72.3228 20.6794C72.3228 22.7158 73.7962 24.3266 75.8222 24.3266C76.9273 24.3266 78.0017 24.0227 78.9226 22.9589V18.3999C78.0017 17.3361 76.9273 17.0018 75.8222 17.0018Z" fill="white"/>
        <path fill-rule="evenodd" clip-rule="evenodd" d="M17.28 33.6C26.2933 33.6 33.6 26.2933 33.6 17.28C33.6 8.26671 26.2933 0.96 17.28 0.96C8.26671 0.96 0.96 8.26671 0.96 17.28C0.96 26.2933 8.26671 33.6 17.28 33.6ZM34.56 17.28C34.56 26.8235 26.8235 34.56 17.28 34.56C7.73652 34.56 0 26.8235 0 17.28C0 7.73652 7.73652 0 17.28 0C26.8235 0 34.56 7.73652 34.56 17.28Z" fill="white"/>
        <path fill-rule="evenodd" clip-rule="evenodd" d="M27.7098 13.0323V18.7708H10.2183L9.46571 18.7709C10.2622 22.2527 13.4233 24.8536 17.2016 24.8536C20.3253 24.8536 23.0271 23.0759 24.3196 20.4924L27.7098 20.4924V25.3126C27.7098 26.4536 26.7701 27.3785 25.6108 27.3785H8.81895C7.65972 27.3785 6.71997 26.4536 6.71997 25.3126V13.0323H27.7098ZM22.3065 20.4924C21.1933 22.0942 19.3222 23.1453 17.2016 23.1453C15.0811 23.1453 13.2099 22.0942 12.0968 20.4924H22.3065ZM12.7254 14.4095C11.0805 14.4095 9.71969 15.6067 9.49337 17.164L11.2826 17.164C11.4793 16.5646 12.0509 16.1311 12.7254 16.1311C13.3999 16.1311 13.9715 16.5646 14.1682 17.164L15.9574 17.164C15.7311 15.6067 14.3703 14.4095 12.7254 14.4095ZM21.7044 14.4095C20.0595 14.4095 18.6987 15.6067 18.4724 17.164L20.2615 17.164C20.4583 16.5646 21.0299 16.1311 21.7044 16.1311C22.3789 16.1311 22.9505 16.5646 23.1472 17.164L24.9364 17.164C24.7101 15.6067 23.3493 14.4095 21.7044 14.4095ZM25.6108 6.71997C26.7701 6.71997 27.7098 7.64488 27.7098 8.78582V11.3108H6.71997V8.78582C6.71997 7.64488 7.65972 6.71997 8.81895 6.71997H25.6108Z" fill="white"/>
    </g>
    <path d="M124 12C124 5.37258 129.373 0 136 0H164V8C164 14.6274 158.627 20 152 20H124V12Z" fill="url(#paint0_linear_7400_23004)"/>
    <path d="M133.69 6.72C134.53 6.72 135.19 6.89 135.66 7.24C136.16 7.61 136.45 8.19 136.52 8.97H135.36C135.26 8.53 135.07 8.21 134.81 8.02C134.55 7.82 134.15 7.73 133.63 7.73C133.18 7.73 132.84 7.79 132.6 7.92C132.3 8.07 132.16 8.32 132.16 8.66C132.16 8.96 132.32 9.21 132.66 9.39C132.81 9.47 133.22 9.62 133.88 9.83C134.85 10.13 135.47 10.37 135.75 10.53C136.37 10.9 136.68 11.41 136.68 12.07C136.68 12.71 136.43 13.22 135.93 13.59C135.43 13.95 134.72 14.14 133.81 14.14C132.93 14.14 132.24 13.97 131.75 13.63C131.15 13.21 130.82 12.55 130.77 11.64H131.93C132.01 12.18 132.2 12.57 132.51 12.8C132.79 13 133.22 13.11 133.81 13.11C134.33 13.11 134.75 13.02 135.05 12.85C135.35 12.67 135.51 12.44 135.51 12.14C135.51 11.76 135.28 11.46 134.84 11.24C134.7 11.17 134.24 11.01 133.45 10.77C132.57 10.49 132.02 10.29 131.81 10.17C131.26 9.84 130.99 9.36 130.99 8.73C130.99 8.1 131.25 7.6 131.79 7.24C132.29 6.89 132.92 6.72 133.69 6.72ZM139.203 7.16V8.83H140.353V9.77H139.203V12.69C139.203 12.81 139.223 12.9 139.283 12.97C139.343 13.03 139.423 13.06 139.543 13.06H140.223V14H139.353C138.903 14 138.573 13.88 138.363 13.64C138.163 13.42 138.063 13.11 138.063 12.69V9.77H137.133V8.83H138.063V7.63L139.203 7.16ZM143.556 8.69C144.316 8.69 144.886 8.88 145.246 9.26C145.566 9.59 145.726 10.07 145.726 10.7V14H144.666V13.32C144.466 13.58 144.216 13.77 143.926 13.91C143.596 14.06 143.206 14.14 142.756 14.14C142.216 14.14 141.796 14 141.486 13.73C141.166 13.45 141.006 13.1 141.006 12.67C141.006 12.09 141.226 11.64 141.686 11.33C142.106 11.03 142.696 10.87 143.456 10.85L144.586 10.82V10.62C144.586 9.94 144.216 9.61 143.476 9.61C143.156 9.61 142.906 9.66 142.716 9.78C142.496 9.91 142.346 10.11 142.286 10.38L141.156 10.29C141.266 9.72 141.546 9.3 141.996 9.04C142.376 8.8 142.896 8.69 143.556 8.69ZM144.586 11.64L143.536 11.67C142.626 11.69 142.176 12.01 142.176 12.63C142.176 12.81 142.246 12.96 142.406 13.08C142.566 13.2 142.766 13.27 143.016 13.27C143.456 13.27 143.826 13.14 144.126 12.89C144.426 12.63 144.586 12.3 144.586 11.9V11.64ZM146.929 6.72H148.069V10.88L150.189 8.83H151.659L149.369 10.97L151.859 14H150.399L148.589 11.7L148.069 12.19V14H146.929V6.72ZM154.656 8.69C155.506 8.69 156.156 8.97 156.606 9.55C157.016 10.07 157.226 10.8 157.226 11.73H153.356C153.396 12.21 153.526 12.58 153.746 12.83C153.966 13.08 154.286 13.21 154.696 13.21C155.046 13.21 155.326 13.13 155.546 12.97C155.716 12.84 155.866 12.63 156.006 12.34H157.146C157.026 12.82 156.786 13.23 156.426 13.55C155.966 13.94 155.396 14.14 154.706 14.14C153.936 14.14 153.326 13.9 152.876 13.43C152.396 12.94 152.156 12.27 152.156 11.41C152.156 10.64 152.376 10 152.836 9.48C153.276 8.95 153.886 8.69 154.656 8.69ZM154.686 9.62C154.306 9.62 154.016 9.72 153.796 9.94C153.586 10.15 153.446 10.46 153.376 10.87H156.036C155.936 10.03 155.486 9.62 154.686 9.62Z" fill="#05050A"/>
    <defs>
        <linearGradient id="paint0_linear_7400_23004" x1="156.936" y1="-17.4074" x2="114.34" y2="-3.65126" gradientUnits="userSpaceOnUse">
            <stop stop-color="#D0D0FF"/>
            <stop offset="0.303907" stop-color="#A996F7"/>
            <stop offset="0.505226" stop-color="#7280FE"/>
            <stop offset="1" stop-color="#D3D6FE"/>
        </linearGradient>
        <clipPath id="clip0_7400_23004">
            <rect width="120" height="34.56" fill="white"/>
        </clipPath>
    </defs>
</svg>
